X: 22
T: Castle, The
C: Sean Ryan
Z: Abram
S: https://thesession.org/tunes/273#setting49270
R: jig
M: 6/8
L: 1/8
K: Ador
|:B|c2A BdB|AGE DB,G,|A,3 EDB,|DEG AGE|
c2A BdB|AGE DB,G,|A,2E EDE|DB,A, A,2:|
|:B|cBA a3|bag edB|GBd g3|G,B,D GBd|
cBc dcd|ede gab|age dBG|EFG A2:|

